src/16/actions/distribute-vertical-y.svg

<svg xmlns="http://www.w3.org/2000/svg" width="16" height="16" viewBox="0 0 16 16">
 <defs>
  <style id="current-color-scheme" type="text/css">
   .ColorScheme-Text { color:#565656; } .ColorScheme-Highlight { color:#5294e2; }
  </style>
 </defs>
 <path style="fill:currentColor" class="ColorScheme-Text" d="M 3 0.98046875 L 3 4.9804688 L 13 4.9804688 L 13 0.98046875 L 3 0.98046875 z M 6 5.9804688 L 6 6.9804688 L 7 6.9804688 L 7 8.9804688 L 6 8.9804688 L 6 9.9804688 L 10 9.9804688 L 10 8.9804688 L 9 8.9804688 L 9 6.9804688 L 10 6.9804688 L 10 5.9804688 L 6 5.9804688 z M 3 10.980469 L 3 14.980469 L 13 14.980469 L 13 10.980469 L 3 10.980469 z"/>
</svg>

<svg xmlns="http://www.w3.org/2000/svg" width="16" height="16"><defs><style id="current-color-scheme" type="text/css"></style></defs><path d="M3 .98v4h10v-4H3zm3 5v1h1v2H6v1h4v-1H9v-2h1v-1H6zm-3 5v4h10v-4H3z" fill="currentColor" color="#565656"/></svg>
